X:1
T:A Sinner Like Me
T:A Sinner Like Me
T:Charles J. Butler
T:Charles J. Butler, 1878
T:Public Domain Courtesy of the Cyber Hymnal™
C:Charles J. Butler
Z:Public Domain
Z:Courtesy of the Cyber Hymnal™
%%score 1 ( 2 3 )
L:1/8
Q:1/4=82
M:6/8
K:G
V:1 treble 
V:2 bass 
V:3 bass 
V:1
 ([B,D]/[B,D]/) | ([B,G][B,G])[B,G] [DB]>[CA][B,G] | [CE] [B,D]4 ([B,D]/[B,D]/) | %3
w: 1.~I~was *|once~far * a- way from the|Sav- ior, And~as *|
w: 2.~I *|wan- * dered on in the|dark- ness, Not~a *|
w: 3.~And *|then,~in * that dark, lone- ly|ho- ur, A *|
w: 4.~I *|listened, * and lo! ’twas the|Sav- ior That~was *|
w: 5.~I *|then~ful- * ly trust- ed in|Je- sus; And *|
w: 6.~No *|longer * in dark- ness I’m|walk- ing, For~the *|
w: 7.~And *|when * life’s jour- ney is|o- ver, And *|
 ([B,G]>[B,G])[B,G] [DB]<[DB][Dd] | [DA]6 ([DB]/[DB]/) | [Gd]>[DB][DA] ([DG][DA])[=FB] | %6
w: vile~as * a sin- ner could|be, I *|won- dered if Christ~the * Re-|
w: ray * of light I could|see, And~the *|thought filled my heart * with|
w: voice~sweet- * ly whis- pered to|me, Saying *|Christ the Re- deemer * has|
w: speaking * so kind- ly to|me; I *|cried, “I’m the chief * of|
w: oh,~what * a joy came to|me: My *|heart was filled with * His|
w: light~is * now shin- ing on|me; And *|now un- to others * I’m|
w: I~the * dear Sav- ior shall|see, I’ll *|praise Him for- ever * and|
 [Ec] [Ec]4 ([Ec]/[Ec]/) | [Dd]>[DB][^CG] [DA]<[DB][DA] | [DG]3- [DG]2 |] %9
w: deem- er Could *|save a poor sin- ner like|me. *|
w: sad- ness, There’s~no *|help for a sin- ner like|me. *|
w: po- wer To *|save a poor sin- ner like|me. *|
w: sin- ners; Oh, *|save a poor sin- ner like|me.” *|
w: prais- es, For *|sav- ing a sin- ner like|me. *|
w: tell- ing, How~He *|saved a poor sin- ner like|me. *|
w: ev- er, For *|sav- ing a sin- ner like|me. *|
V:2
 ([G,,G,]/[G,,G,]/) | ([G,,D,][G,,D,])[G,,D,] [G,,G,]>[G,,G,][G,,G,] | %2
 [C,G,] [G,,G,]4 ([G,,G,]/[G,,G,]/) | ([G,,D,]>[G,,D,])[G,,D,] [G,,G,]<[G,,G,][B,,G,] | %4
 [D,F,]6 G,/[G,A,]/ | [G,B,]>G,[G,C] ([F,B,][F,A,])G, | [C,G,] [C,G,]4 ([G,,E,]/[G,,E,]/) | %7
 [B,,G,]>[G,,G,][E,G,] [D,F,]<[D,G,][D,C] | [G,,B,]3- [G,,B,]2 |] %9
V:3
 x | x6 | x6 | x6 | x6 G,/ x/ | x3/2 G,/ x5/2 G, x/ | x6 | x6 | x5 |] %9

